X:115
T:Murphy Delany
S:John Moore's Book 2
Z:Transcribed by Steve Mansfield 05/2021
%%VWML: Moore2-4494-p90-0
F:http://www.vwml.org/record/Moore2/4494/p90
M:6/8
L:1/8
K:G
GFG GFG | GFG Bcd | GFG GFG | ABG FED | 
GFG GFG | GFG Bcd | efg dcB | ABG FED ||
Bcd ded | ded dcB | cde efe | efe edc | 
Bcd ded | ded def | gfe dcB | ABG FED :| 

